build/assets/img/stage-design/image-element-9.svg

<svg width="72" height="127" viewBox="0 0 72 127" fill="none" xmlns="http://www.w3.org/2000/svg">
<path d="M71.9903 10.135L65.0015 120.636C64.8817 122.435 64.0436 124.113 62.6708 125.304C61.298 126.495 59.5025 127.1 57.6781 126.987L9.75961 124.029C8.85644 123.976 7.97266 123.749 7.15882 123.359C6.34498 122.969 5.61707 122.425 5.01674 121.757C4.41642 121.09 3.95548 120.312 3.66028 119.468C3.36509 118.625 3.24143 117.732 3.29641 116.841L10.2853 6.32906C10.3854 4.73024 11.0596 3.21886 12.1871 2.06584C13.3145 0.912818 14.8215 0.193547 16.4379 0.0369667C16.8345 -0.0123222 17.2359 -0.0123222 17.6325 0.0369667L25.9953 0.55542C26.2491 0.568926 26.4976 0.6319 26.7266 0.740715C26.9556 0.849531 27.1604 1.00203 27.3292 1.18938C27.4981 1.37674 27.6276 1.59525 27.7103 1.83227C27.7931 2.06929 27.8273 2.32014 27.8112 2.57031C27.775 3.07928 27.9443 3.58173 28.2822 3.96803C28.6202 4.35433 29.0993 4.59313 29.6151 4.63232L52.983 6.06985C53.4981 6.09252 54.0017 5.91524 54.3858 5.57603C54.7699 5.23683 55.004 4.76269 55.0379 4.25527C55.0516 4.00496 55.1154 3.75981 55.2258 3.53398C55.3361 3.30816 55.4907 3.10614 55.6806 2.9396C55.8706 2.77306 56.0922 2.6453 56.3325 2.56372C56.5728 2.48213 56.8271 2.44832 57.0808 2.46425L65.4435 2.98271C66.3502 3.02644 67.2392 3.24636 68.0595 3.62986C68.8797 4.01335 69.6151 4.55286 70.2234 5.21742C70.8317 5.88197 71.3009 6.65849 71.6042 7.50238C71.9074 8.34627 72.0386 9.24092 71.9903 10.135Z" fill="#B4D1FA"/>
<g filter="url(#filter0_d)">
<path d="M2.70026 52.2705L2.42549 54.6271C2.40737 54.7857 2.42208 54.9462 2.46873 55.0989C2.51538 55.2517 2.59302 55.3935 2.69691 55.5158C2.8008 55.6381 2.92878 55.7383 3.0731 55.8104C3.21743 55.8825 3.37511 55.9249 3.53655 55.935L55.9231 59.4699C56.0801 59.4811 56.2377 59.4616 56.3871 59.4126C56.5364 59.3635 56.6744 59.2858 56.7932 59.184C56.912 59.0822 57.0092 58.9582 57.0792 58.8192C57.1493 58.6802 57.1908 58.529 57.2014 58.3741L57.3567 56.0175C57.3681 55.8627 57.3483 55.7072 57.2986 55.5599C57.2489 55.4126 57.1701 55.2765 57.0669 55.1594C56.9636 55.0422 56.8379 54.9463 56.697 54.8772C56.5561 54.8081 56.4027 54.7672 56.2457 54.7567L3.96663 51.2218C3.65917 51.2018 3.35575 51.2998 3.11977 51.4952C2.88379 51.6906 2.73349 51.9684 2.70026 52.2705Z" fill="#8FB1DB"/>
</g>
<g filter="url(#filter1_d)">
<path d="M2.28231 59.4707L2.00752 61.8273C1.9894 61.9858 2.00412 62.1463 2.05078 62.2991C2.09743 62.4519 2.17505 62.5937 2.27893 62.716C2.38282 62.8383 2.51082 62.9385 2.65515 63.0106C2.79948 63.0826 2.95714 63.125 3.11858 63.1352L55.5529 66.6936C55.7099 66.7049 55.8676 66.6854 56.0169 66.6363C56.1662 66.5872 56.3042 66.5096 56.423 66.4077C56.5418 66.3059 56.639 66.182 56.7091 66.043C56.7791 65.904 56.8207 65.7527 56.8313 65.5978L56.9866 63.2412C57.0062 62.9305 56.9004 62.6247 56.6922 62.3907C56.4841 62.1567 56.1904 62.0134 55.8755 61.9922L3.59644 58.4573C3.28666 58.4238 2.97587 58.511 2.73037 58.7003C2.48486 58.8897 2.32408 59.1661 2.28231 59.4707Z" fill="#8FB1DB"/>
</g>
<g filter="url(#filter2_d)">
<path d="M34.5865 47.1922C43.9557 47.1922 51.5509 39.7011 51.5509 30.4604C51.5509 21.2197 43.9557 13.7286 34.5865 13.7286C25.2173 13.7286 17.6221 21.2197 17.6221 30.4604C17.6221 39.7011 25.2173 47.1922 34.5865 47.1922Z" fill="#8FB1DB"/>
</g>
<g filter="url(#filter3_d)">
<path d="M15.5628 72.322L15.3932 74.6726C15.2996 75.9709 16.2907 77.0982 17.607 77.1905L35.8275 78.4692C37.1438 78.5616 38.2868 77.5841 38.3805 76.2859L38.55 73.9352C38.6437 72.637 37.6526 71.5097 36.3363 71.4173L18.1157 70.1386C16.7994 70.0462 15.6565 71.0237 15.5628 72.322Z" fill="#6C8AAF"/>
</g>
<defs>
<filter id="filter0_d" x="0.417969" y="49.2193" width="62.9419" height="16.2537" filterUnits="userSpaceOnUse" color-interpolation-filters="sRGB">
<feFlood flood-opacity="0" result="BackgroundImageFix"/>
<feColorMatrix in="SourceAlpha" type="matrix" values="0 0 0 0 0 0 0 0 0 0 0 0 0 0 0 0 0 0 127 0"/>
<feOffset dx="2" dy="2"/>
<feGaussianBlur stdDeviation="2"/>
<feColorMatrix type="matrix" values="0 0 0 0 0.555729 0 0 0 0 0.660379 0 0 0 0 0.808333 0 0 0 0.2 0"/>
<feBlend mode="normal" in2="BackgroundImageFix" result="effect1_dropShadow"/>
<feBlend mode="normal" in="SourceGraphic" in2="effect1_dropShadow" result="shape"/>
</filter>
<filter id="filter1_d" x="0" y="56.4503" width="62.9889" height="16.2464" filterUnits="userSpaceOnUse" color-interpolation-filters="sRGB">
<feFlood flood-opacity="0" result="BackgroundImageFix"/>
<feColorMatrix in="SourceAlpha" type="matrix" values="0 0 0 0 0 0 0 0 0 0 0 0 0 0 0 0 0 0 127 0"/>
<feOffset dx="2" dy="2"/>
<feGaussianBlur stdDeviation="2"/>
<feColorMatrix type="matrix" values="0 0 0 0 0.555729 0 0 0 0 0.660379 0 0 0 0 0.808333 0 0 0 0.2 0"/>
<feBlend mode="normal" in2="BackgroundImageFix" result="effect1_dropShadow"/>
<feBlend mode="normal" in="SourceGraphic" in2="effect1_dropShadow" result="shape"/>
</filter>
<filter id="filter2_d" x="15.6221" y="11.7286" width="41.9289" height="41.4636" filterUnits="userSpaceOnUse" color-interpolation-filters="sRGB">
<feFlood flood-opacity="0" result="BackgroundImageFix"/>
<feColorMatrix in="SourceAlpha" type="matrix" values="0 0 0 0 0 0 0 0 0 0 0 0 0 0 0 0 0 0 127 0"/>
<feOffset dx="2" dy="2"/>
<feGaussianBlur stdDeviation="2"/>
<feColorMatrix type="matrix" values="0 0 0 0 0.555729 0 0 0 0 0.660379 0 0 0 0 0.808333 0 0 0 0.2 0"/>
<feBlend mode="normal" in2="BackgroundImageFix" result="effect1_dropShadow"/>
<feBlend mode="normal" in="SourceGraphic" in2="effect1_dropShadow" result="shape"/>
</filter>
<filter id="filter3_d" x="13.3872" y="68.1325" width="31.1691" height="16.3428" filterUnits="userSpaceOnUse" color-interpolation-filters="sRGB">
<feFlood flood-opacity="0" result="BackgroundImageFix"/>
<feColorMatrix in="SourceAlpha" type="matrix" values="0 0 0 0 0 0 0 0 0 0 0 0 0 0 0 0 0 0 127 0"/>
<feOffset dx="2" dy="2"/>
<feGaussianBlur stdDeviation="2"/>
<feColorMatrix type="matrix" values="0 0 0 0 0.555729 0 0 0 0 0.660379 0 0 0 0 0.808333 0 0 0 0.2 0"/>
<feBlend mode="normal" in2="BackgroundImageFix" result="effect1_dropShadow"/>
<feBlend mode="normal" in="SourceGraphic" in2="effect1_dropShadow" result="shape"/>
</filter>
</defs>
</svg>

<svg width="72" height="127" fill="none" xmlns="http://www.w3.org/2000/svg"><path d="M71.99 10.135l-6.989 110.501a6.777 6.777 0 01-2.33 4.668 6.964 6.964 0 01-4.993 1.683L9.76 124.029a6.962 6.962 0 01-2.601-.67 6.87 6.87 0 01-2.142-1.602 6.756 6.756 0 01-1.357-2.289 6.7 6.7 0 01-.364-2.627l6.99-110.512c.1-1.599.774-3.11 1.901-4.263a6.871 6.871 0 014.25-2.029c.397-.05.799-.05 1.195 0l8.363.518a1.945 1.945 0 011.334.634 1.89 1.89 0 01.482 1.381 1.916 1.916 0 00.471 1.398c.338.386.817.625 1.333.664L52.983 6.07a1.988 1.988 0 001.403-.494c.384-.34.618-.813.652-1.32a1.875 1.875 0 01.643-1.316 1.93 1.93 0 011.4-.476l8.362.519a6.97 6.97 0 012.617.647c.82.383 1.555.923 2.163 1.587a6.782 6.782 0 011.381 2.285c.303.844.435 1.739.386 2.633z" fill="#B4D1FA"/><g filter="url(#filter0_d)"><path d="M2.7 52.27l-.275 2.357a1.163 1.163 0 00.272.889 1.193 1.193 0 00.84.419l52.386 3.535a1.212 1.212 0 00.87-.286 1.179 1.179 0 00.408-.81l.156-2.357a1.164 1.164 0 00-.29-.858 1.193 1.193 0 00-.821-.402l-52.28-3.535c-.307-.02-.61.078-.846.273a1.174 1.174 0 00-.42.776z" fill="#8FB1DB"/></g><g filter="url(#filter1_d)"><path d="M2.282 59.47l-.274 2.357a1.163 1.163 0 00.27.889 1.193 1.193 0 00.84.42l52.435 3.558a1.208 1.208 0 00.87-.286 1.18 1.18 0 00.408-.81l.156-2.357c.02-.31-.087-.616-.295-.85a1.2 1.2 0 00-.816-.399l-52.28-3.535a1.21 1.21 0 00-.866.243 1.18 1.18 0 00-.448.77z" fill="#8FB1DB"/></g><g filter="url(#filter2_d)"><path d="M34.587 47.192c9.369 0 16.964-7.49 16.964-16.732 0-9.24-7.595-16.731-16.965-16.731-9.369 0-16.964 7.49-16.964 16.731 0 9.241 7.595 16.732 16.965 16.732z" fill="#8FB1DB"/></g><g filter="url(#filter3_d)"><path d="M15.563 72.322l-.17 2.35c-.093 1.299.898 2.426 2.214 2.519l18.22 1.278c1.317.093 2.46-.885 2.553-2.183l.17-2.35c.094-1.299-.897-2.426-2.214-2.519l-18.22-1.278c-1.317-.093-2.46.885-2.553 2.183z" fill="#6C8AAF"/></g><defs><filter id="filter0_d" x=".418" y="49.219" width="62.942" height="16.254" filterUnits="userSpaceOnUse" color-interpolation-filters="sRGB"><feFlood flood-opacity="0" result="BackgroundImageFix"/><feColorMatrix in="SourceAlpha" values="0 0 0 0 0 0 0 0 0 0 0 0 0 0 0 0 0 0 127 0"/><feOffset dx="2" dy="2"/><feGaussianBlur stdDeviation="2"/><feColorMatrix values="0 0 0 0 0.555729 0 0 0 0 0.660379 0 0 0 0 0.808333 0 0 0 0.2 0"/><feBlend in2="BackgroundImageFix" result="effect1_dropShadow"/><feBlend in="SourceGraphic" in2="effect1_dropShadow" result="shape"/></filter><filter id="filter1_d" x="0" y="56.45" width="62.989" height="16.246" filterUnits="userSpaceOnUse" color-interpolation-filters="sRGB"><feFlood flood-opacity="0" result="BackgroundImageFix"/><feColorMatrix in="SourceAlpha" values="0 0 0 0 0 0 0 0 0 0 0 0 0 0 0 0 0 0 127 0"/><feOffset dx="2" dy="2"/><feGaussianBlur stdDeviation="2"/><feColorMatrix values="0 0 0 0 0.555729 0 0 0 0 0.660379 0 0 0 0 0.808333 0 0 0 0.2 0"/><feBlend in2="BackgroundImageFix" result="effect1_dropShadow"/><feBlend in="SourceGraphic" in2="effect1_dropShadow" result="shape"/></filter><filter id="filter2_d" x="15.622" y="11.729" width="41.929" height="41.464" filterUnits="userSpaceOnUse" color-interpolation-filters="sRGB"><feFlood flood-opacity="0" result="BackgroundImageFix"/><feColorMatrix in="SourceAlpha" values="0 0 0 0 0 0 0 0 0 0 0 0 0 0 0 0 0 0 127 0"/><feOffset dx="2" dy="2"/><feGaussianBlur stdDeviation="2"/><feColorMatrix values="0 0 0 0 0.555729 0 0 0 0 0.660379 0 0 0 0 0.808333 0 0 0 0.2 0"/><feBlend in2="BackgroundImageFix" result="effect1_dropShadow"/><feBlend in="SourceGraphic" in2="effect1_dropShadow" result="shape"/></filter><filter id="filter3_d" x="13.387" y="68.132" width="31.169" height="16.343" filterUnits="userSpaceOnUse" color-interpolation-filters="sRGB"><feFlood flood-opacity="0" result="BackgroundImageFix"/><feColorMatrix in="SourceAlpha" values="0 0 0 0 0 0 0 0 0 0 0 0 0 0 0 0 0 0 127 0"/><feOffset dx="2" dy="2"/><feGaussianBlur stdDeviation="2"/><feColorMatrix values="0 0 0 0 0.555729 0 0 0 0 0.660379 0 0 0 0 0.808333 0 0 0 0.2 0"/><feBlend in2="BackgroundImageFix" result="effect1_dropShadow"/><feBlend in="SourceGraphic" in2="effect1_dropShadow" result="shape"/></filter></defs></svg>
